dist/img/picture/brands/good-year.svg

<svg width="129" height="24" viewBox="0 0 129 24" fill="none" xmlns="http://www.w3.org/2000/svg">
<path fill-rule="evenodd" clip-rule="evenodd" d="M0.322791 11.8915C1.20369 9.38697 3.6529 6.97346 6.35649 6.56153C8.61229 6.24611 10.7822 6.15353 12.4023 7.35636C11.9819 8.22337 11.5083 9.13275 11.5083 9.13275C11.5083 9.13275 10.7985 8.69415 10.3777 8.57959C9.52167 8.20533 8.25952 8.10333 7.46563 8.73181L7.12456 9.28105L5.27574 16.3066C5.24263 16.5325 5.22584 16.8401 5.38669 17.0354C5.82286 17.4722 6.5517 17.2 7.13342 17.2824L7.32778 17.089L8.5871 12.4055L13.9888 12.4499L14.0532 12.5634C13.5306 14.6488 13.0702 16.751 12.4833 18.8026L12.3684 18.9152L3.8766 18.8796C2.58228 18.9406 1.35567 18.4137 0.727422 17.3774C0.679874 17.0532 0.32436 16.8742 0.342406 16.518H0.260883C-0.106871 15.0929 -0.0854504 13.2824 0.322791 11.8915Z" fill="#1F4FA2"/>
<path fill-rule="evenodd" clip-rule="evenodd" d="M64.1209 11.8399C64.9258 13.3956 65.9069 15.1861 66.6301 16.7563L66.5478 16.9835C64.3903 19.1127 62.247 21.9036 59.3494 22.672C59.0744 22.7042 58.9938 22.4927 58.9295 22.2812C58.9672 20.8097 60.5705 20.0883 61.1893 18.8436C61.7744 17.7785 61.9068 16.5164 62.4441 15.4188C62.9329 14.271 63.3249 13.0913 63.9587 12.0097L64.1209 11.8399Z" fill="#1F4FA2"/>
<path fill-rule="evenodd" clip-rule="evenodd" d="M59.5096 23.3036C64.3023 21.6514 67.1009 16.0633 71.6528 13.6338C72.0741 13.4241 72.4146 13.038 72.8838 12.9751C73.0447 13.1682 73.2385 13.3635 73.2385 13.6393C70.0301 15.4725 67.1419 18.409 64.4491 21.134C63.0546 22.4246 61.4988 23.3251 59.8471 24C59.6696 23.7892 59.6065 23.5452 59.5096 23.3036Z" fill="#1F4FA2"/>
<path fill-rule="evenodd" clip-rule="evenodd" d="M62.7796 5.84366C64.519 4.75303 66.2109 3.80991 67.8669 2.97899C67.6864 3.82011 67.5538 4.83934 67.8261 5.72911L67.7453 5.88996L64.1644 7.93469L63.9382 7.93313C63.4879 7.3015 63.069 6.65262 62.6984 5.98883L62.7796 5.84366Z" fill="#1F4FA2"/>
<path fill-rule="evenodd" clip-rule="evenodd" d="M64.4369 8.76023C65.6025 8.72806 66.5388 8.95168 67.5092 9.02701V9.15804C66.4886 9.71983 65.452 10.3485 64.3992 10.7009C64.417 10.0531 64.5478 9.40676 64.4369 8.76023Z" fill="#1F4FA2"/>
<path fill-rule="evenodd" clip-rule="evenodd" d="M64.6714 11.5429C65.855 10.8514 67.0534 10.1425 68.3165 9.61232C68.6531 10.5186 69.1365 11.2811 69.8615 11.9959C70.6068 11.7378 70.7387 10.8499 71.3868 10.5274L72.5465 12.3428L72.497 12.4719C70.7308 13.582 68.916 14.742 67.2942 16.2889H67.1322C66.263 14.7332 65.4106 13.163 64.6714 11.5429Z" fill="#1F4FA2"/>
<path fill-rule="evenodd" clip-rule="evenodd" d="M68.3251 6.44156L68.2074 8.25327C67.4134 8.33801 66.4116 8.27288 65.4091 8.1803L65.3285 8.09948L68.1321 6.44156H68.3251Z" fill="#1F4FA2"/>
<path fill-rule="evenodd" clip-rule="evenodd" d="M75.2345 6.34508H80.7975L82.1777 10.4968C82.1777 10.4968 82.2263 10.5614 82.2577 10.6095C83.5398 9.38472 85.7634 6.34508 85.7634 6.34508H88.7073V6.5381L83.1388 13.5246C83.1388 13.5246 82.2059 16.9997 81.6834 18.7614L81.2628 18.8741H75.7791L75.7155 18.7614L77.0086 13.4581L74.8461 6.53653C74.8461 6.53653 75.1207 6.45806 75.2345 6.34508Z" fill="#1F4FA2"/>
<path fill-rule="evenodd" clip-rule="evenodd" d="M89.7918 6.43999L89.9212 6.35917L99.8852 6.3325C99.9817 6.31681 100.128 6.43842 100.128 6.43842L99.6522 8.60791L95.1547 8.59536L94.9593 8.93588L94.4838 11.342L94.5976 11.4227L97.3148 11.3742L96.7577 13.8378L93.7816 13.8629C93.7816 13.8629 93.3069 15.6568 93.1421 16.5791L93.2551 16.6594C94.6141 16.6631 96.0052 16.6683 97.4607 16.6723L97.5729 16.7526C97.5235 17.4973 97.2292 18.0668 97.0668 18.7614L96.7906 18.8797L86.811 18.9204L89.7918 6.43999Z" fill="#1F4FA2"/>
<path fill-rule="evenodd" clip-rule="evenodd" d="M20.0871 7.03237C22.4627 5.75029 25.7732 5.99431 27.7856 7.28345C29.5115 8.76012 29.9744 11.0894 29.4346 13.2239C28.7468 15.7449 26.5878 18.4392 23.9011 18.9977C21.4081 19.637 18.4327 19.3541 16.8052 17.2629C15.3064 15.4457 15.6396 12.4233 16.7123 10.4682C17.3799 9.03081 18.71 7.78953 20.0871 7.03237ZM20.9174 16.0777C20.8031 16.4498 20.7853 16.9675 21.0753 17.2754C21.3348 17.4382 21.6732 17.5351 21.9972 17.44C22.3052 17.3113 22.6613 17.118 22.8245 16.7792C23.4941 14.597 23.8564 12.2854 24.4777 10.0707C24.4798 9.47255 25.1044 8.67459 24.3624 8.31602C23.8288 8.18577 23.2379 8.2556 22.8808 8.65811C22.392 9.7252 22.2583 10.9212 21.9487 12.0366C21.6536 13.4115 21.2613 14.7368 20.9174 16.0777Z" fill="#1F4FA2"/>
<path fill-rule="evenodd" clip-rule="evenodd" d="M34.7244 7.46399C37.066 5.93005 40.3023 5.70564 42.6522 6.77666C44.4936 7.67192 45.1507 9.64682 45.2418 11.5732C45.1847 14.45 43.4785 17.1468 40.9521 18.4175L39.316 19.0765C36.9704 19.3753 34.3974 19.2558 32.7217 17.5027C31.1571 15.9469 31.0351 13.3257 31.7207 11.3384C32.1453 9.77009 33.3789 8.39848 34.7244 7.46399ZM36.5569 17.0138C36.8309 17.1931 37.1862 17.3237 37.5264 17.2112C37.8654 17.0821 38.2065 16.7919 38.3858 16.4698L39.4821 11.8953C39.5486 11.6519 39.5324 11.3295 39.647 11.1665C39.7797 10.2139 40.2744 9.41379 40.1966 8.44321C40.0678 8.31453 39.9318 8.01323 39.7365 7.98106C39.2523 7.86651 38.7824 7.97792 38.4581 8.3161C37.6266 10.6599 37.2631 13.1988 36.6087 15.6229C36.5747 16.0759 36.2992 16.5752 36.5569 17.0138Z" fill="#1F4FA2"/>
<path fill-rule="evenodd" clip-rule="evenodd" d="M48.5568 6.45408L48.8801 6.37405L57.1463 6.36699C58.4713 6.54902 59.6975 7.82953 60.1953 9.09357C61.0761 11.8449 59.9841 14.6396 58.2312 16.7223C56.9011 18.0595 55.3138 18.89 53.4052 18.89C50.4251 18.89 45.6414 18.8797 45.6414 18.8797C45.6414 18.8797 48.0011 8.65261 48.5568 6.45408ZM51.5834 16.896C51.9702 17.1553 52.4404 16.9316 52.8609 16.9478C53.2495 16.8528 53.4117 16.5126 53.6069 16.2064C53.6069 16.2064 55.6423 9.0716 55.2877 8.56865C54.9171 8.19596 54.3783 8.33013 53.7114 8.33013C53.662 8.45959 53.6299 8.58827 53.5968 8.71695L51.5834 16.896Z" fill="#1F4FA2"/>
<path fill-rule="evenodd" clip-rule="evenodd" d="M69.586 1.73861C71.4495 0.143468 74.0851 0.685639 76.5433 0.644839C79.6159 0.991644 83.029 0.889647 86.0553 0.3153C86.1346 1.25528 85.4041 2.07679 84.6093 2.56011C82.4712 3.70253 79.7713 3.30473 77.3452 3.16898L77.3444 3.31414L78.3464 3.70645C78.3291 4.02972 77.9729 4.20547 77.7305 4.33415C77.3413 4.49579 76.8729 4.47774 76.4829 4.63859C76.5967 4.78374 76.9199 4.67312 76.8713 4.94695C76.1565 5.73785 74.9435 5.73472 74.0388 5.35888L73.9258 5.48756C73.9556 6.26512 73.9203 7.12193 73.4817 7.76846C73.1733 7.81476 72.9968 7.53935 72.7551 7.42637C72.5598 7.9097 72.6382 8.58997 72.2647 9.00896C71.9423 8.99326 71.6841 8.57035 71.393 8.45815C71.0352 9.23258 70.8218 10.0727 70.2538 10.7512C69.6723 10.7172 69.3836 10.0049 69.1419 9.55035C68.934 8.61194 68.8571 7.47815 69.0705 6.50992C68.5064 5.63428 68.0733 4.50128 68.497 3.40202C68.6445 2.77118 69.0666 2.1576 69.586 1.73861ZM70.5135 5.08975L69.7383 5.00737L69.8018 5.15252C70.3683 5.20274 70.2608 5.9552 70.7292 6.08544L70.5135 5.08975L70.9074 3.26392C71.1812 3.41065 71.6017 3.49147 71.9101 3.34788C72.1855 2.92732 72.7599 2.96969 73.2298 2.95635C73.6182 2.87554 73.579 2.12308 74.0804 2.33493C74.2585 2.28628 74.5661 2.15761 74.5504 1.99597C74.0317 2.28628 73.4354 1.5401 73.1098 2.18585C72.8014 2.45968 72.3165 2.44242 71.9446 2.49028C71.8136 2.94301 71.3279 3.21527 70.9074 3.26392L70.5135 5.08975Z" fill="#1F4FA2"/>
<path fill-rule="evenodd" clip-rule="evenodd" d="M105.401 6.33489L110.335 6.33254L110.528 6.5436L111.818 18.8797C111.818 18.9441 106.221 18.8797 106.221 18.8797L106.001 16.9368L101.731 16.9601L100.479 18.8797L97.9558 18.8901C97.9558 18.8901 104.214 8.20701 105.401 6.33489ZM103.096 14.6991L105.684 14.6973L105.306 10.9534L103.096 14.6991Z" fill="#1F4FA2"/>
<path fill-rule="evenodd" clip-rule="evenodd" d="M116.076 6.47222L116.238 6.35923L126.056 6.35609C127.172 6.3914 127.979 7.21918 128.542 8.10974C129.218 9.24587 129.101 10.814 128.482 11.9434C127.994 12.8479 127.102 13.6855 126.227 14.2336C126.51 15.671 126.854 17.1036 127.185 18.5735C127.233 18.7669 127.135 18.896 126.957 18.8797L121.474 18.91L121.28 18.7973L120.288 15.2683C120.208 15.1215 120.029 15.2021 119.899 15.1861L119.738 15.4117L118.838 18.7595L118.675 18.8883L113.096 18.9045C112.999 18.6449 113.081 18.4859 113.178 18.2422C114.144 14.3301 115.174 10.4002 116.076 6.47222ZM120.44 12.8583C120.65 13.052 121.16 13.0465 121.451 13.0144C121.743 12.9175 121.978 12.6042 122.125 12.3124L122.909 9.25764C123.072 8.95164 122.961 8.56325 122.751 8.32001C122.427 8.14112 121.878 8.13955 121.553 8.31609L120.44 12.8583Z" fill="#1F4FA2"/>
</svg>

<svg width="129" height="24" viewBox="0 0 129 24" fill="none" xmlns="http://www.w3.org/2000/svg"><path fill-rule="evenodd" clip-rule="evenodd" d="M.323 11.892c.88-2.505 3.33-4.919 6.033-5.33 2.256-.316 4.426-.408 6.046.794-.42.867-.894 1.777-.894 1.777s-.71-.439-1.13-.553c-.856-.375-2.118-.477-2.912.152l-.341.55-1.85 7.025c-.032.226-.05.533.112.728.436.437 1.165.165 1.746.247l.195-.193 1.26-4.683 5.4.044.065.113c-.522 2.086-.983 4.188-1.57 6.24l-.115.112-8.491-.035c-1.295.06-2.521-.466-3.15-1.503-.047-.324-.403-.503-.385-.859H.261c-.368-1.425-.346-3.236.062-4.627zm63.797-.052c.806 1.556 1.787 3.346 2.51 4.916l-.082.227c-2.158 2.13-4.301 4.92-7.199 5.689-.275.032-.355-.18-.42-.39.038-1.472 1.642-2.194 2.26-3.438.585-1.066.718-2.328 1.255-3.425.489-1.148.88-2.328 1.515-3.41l.162-.17z" fill="#1F4FA2"/><path fill-rule="evenodd" clip-rule="evenodd" d="M59.51 23.304c4.792-1.653 7.59-7.24 12.143-9.67.421-.21.762-.596 1.23-.659.162.193.356.389.356.664-3.209 1.834-6.097 4.77-8.79 7.495-1.394 1.29-2.95 2.191-4.602 2.866-.177-.21-.24-.455-.337-.696zm3.27-17.46a61.287 61.287 0 015.087-2.865c-.18.841-.313 1.86-.04 2.75l-.082.161-3.58 2.045-.227-.002c-.45-.631-.869-1.28-1.24-1.944l.082-.145zm1.657 2.916c1.166-.032 2.102.192 3.072.267v.131c-1.02.562-2.057 1.19-3.11 1.543.018-.648.149-1.294.038-1.94zm.234 2.783c1.184-.692 2.382-1.4 3.645-1.93a6.33 6.33 0 001.546 2.383c.745-.258.877-1.146 1.525-1.469l1.16 1.816-.05.129c-1.766 1.11-3.581 2.27-5.203 3.817h-.162c-.869-1.556-1.721-3.126-2.46-4.746zm3.654-5.101l-.118 1.811c-.794.085-1.795.02-2.798-.073l-.08-.08 2.803-1.658h.193zm6.909-.097h5.564l1.38 4.152s.048.064.08.113c1.282-1.225 3.505-4.265 3.505-4.265h2.944v.193l-5.568 6.987S82.206 17 81.683 18.76l-.42.113h-5.484l-.063-.113 1.293-5.303-2.163-6.921s.275-.079.388-.192zm14.558.095l.13-.08 9.963-.028c.097-.015.243.106.243.106l-.476 2.17-4.497-.013-.196.34-.475 2.407.114.08 2.717-.048-.557 2.464-2.976.025s-.475 1.794-.64 2.716l.113.08c1.36.004 2.75.01 4.206.013l.112.08c-.05.745-.344 1.315-.506 2.01l-.276.118-9.98.04 2.98-12.48zm-69.705.592c2.376-1.282 5.686-1.038 7.699.251 1.726 1.477 2.188 3.806 1.649 5.94-.688 2.522-2.847 5.216-5.534 5.775-2.493.639-5.468.356-7.096-1.735-1.499-1.817-1.165-4.84-.093-6.795.668-1.437 1.998-2.678 3.375-3.436zm.83 9.046c-.114.372-.132.89.158 1.197.26.163.598.26.922.165.308-.129.664-.322.828-.66.67-2.183 1.031-4.495 1.653-6.71.002-.597.626-1.395-.116-1.754-.533-.13-1.124-.06-1.481.342-.489 1.067-.623 2.263-.932 3.379-.295 1.374-.688 2.7-1.032 4.04zm13.807-8.614c2.342-1.534 5.578-1.758 7.928-.687 1.842.895 2.499 2.87 2.59 4.796-.057 2.877-1.764 5.574-4.29 6.845l-1.636.659c-2.346.298-4.919.179-6.594-1.574-1.565-1.556-1.687-4.177-1.001-6.165.424-1.568 1.658-2.94 3.003-3.874zm1.833 9.55c.274.18.63.31.97.197.338-.129.68-.42.859-.741l1.096-4.575c.067-.243.05-.566.165-.729.133-.952.627-1.752.55-2.723-.13-.128-.265-.43-.46-.462-.485-.114-.955-.003-1.279.335-.831 2.344-1.195 4.883-1.85 7.307-.033.453-.309.952-.051 1.39zm12-10.56l.323-.08 8.266-.007c1.325.182 2.551 1.463 3.05 2.727.88 2.75-.212 5.546-1.965 7.628-1.33 1.337-2.917 2.168-4.826 2.168-2.98 0-7.764-.01-7.764-.01s2.36-10.227 2.916-12.426zm3.026 10.442c.387.26.857.036 1.278.052.389-.095.55-.435.746-.742 0 0 2.035-7.134 1.68-7.637-.37-.373-.909-.239-1.576-.239-.049.13-.081.258-.114.387l-2.014 8.179z" fill="#1F4FA2"/><path fill-rule="evenodd" clip-rule="evenodd" d="M69.586 1.739C71.45.143 74.086.686 76.543.645c3.073.347 6.486.245 9.512-.33.08.94-.65 1.762-1.446 2.245-2.138 1.143-4.838.745-7.264.609v.145l1.001.392c-.017.324-.373.5-.615.628-.39.162-.858.144-1.248.305.114.145.437.034.388.308-.715.79-1.927.788-2.832.412l-.113.129c.03.777-.006 1.634-.444 2.28-.309.047-.485-.229-.727-.342-.195.484-.117 1.164-.49 1.583-.323-.016-.58-.439-.872-.55-.358.774-.571 1.614-1.14 2.292-.58-.034-.87-.746-1.111-1.2-.208-.94-.285-2.073-.072-3.041-.564-.876-.997-2.009-.573-3.108.147-.63.57-1.244 1.089-1.663zm.927 3.35l-.775-.082.064.146c.566.05.459.802.927.932l-.216-.995.394-1.826c.274.147.695.227 1.003.084.276-.42.85-.378 1.32-.392.388-.08.349-.833.85-.621.178-.049.486-.177.47-.339-.518.29-1.115-.456-1.44.19-.309.274-.793.256-1.165.304-.131.453-.617.725-1.038.774l-.394 1.826zm34.888 1.246l4.934-.002.193.21 1.29 12.337c0 .064-5.597 0-5.597 0l-.22-1.943-4.27.023-1.252 1.92-2.523.01s6.258-10.683 7.445-12.555zm-2.305 8.364l2.588-.002-.378-3.744-2.21 3.746zm12.98-8.227l.162-.113 9.818-.003c1.116.035 1.923.863 2.486 1.754.676 1.136.559 2.704-.06 3.833-.488.905-1.38 1.742-2.255 2.29.283 1.438.627 2.87.958 4.34.048.194-.05.323-.228.307l-5.483.03-.194-.113-.992-3.529c-.08-.147-.259-.066-.389-.082l-.161.226-.9 3.347-.163.13-5.579.015c-.097-.26-.015-.418.082-.662.966-3.912 1.996-7.842 2.898-11.77zm4.364 6.386c.21.194.72.188 1.011.156.292-.096.527-.41.674-.702l.784-3.054c.163-.306.052-.695-.158-.938-.324-.179-.873-.18-1.198-.004l-1.113 4.542z" fill="#1F4FA2"/></svg>
